public/img/rei.svg

<?xml version="1.0" encoding="UTF-8" standalone="no"?>
<svg xmlns:sketch="http://www.bohemiancoding.com/sketch/ns" xmlns="http://www.w3.org/2000/svg" xmlns:xlink="http://www.w3.org/1999/xlink" version="1.1" viewBox="0 0 220 200"><!-- Generator: Sketch 3.3.1 (12002) - http://www.bohemiancoding.com/sketch -->
 <title>REI</title>
 <desc>Created with Sketch.</desc>
 <g id="Page-1" fill-rule="evenodd" sketch:type="MSPage" fill="none">
  <g id="REI" sketch:type="MSLayerGroup">
   <path id="Fill-1" sketch:type="MSShapeGroup" fill="transparent" d="m0.26 0.677h192.76v192.75h-192.76v-192.75z"/>
   <path id="Fill-2" sketch:type="MSShapeGroup" fill="#333" d="m35.464 38.168l-13.716 22.86 7.316-2.378-13.351 24.14 8.047-4.206-14.082 25.606 9.693-4.575-16.277 27.615h78.456v-9.87h1.829l10.424 9.87h20.667l-14.998-15 8.408-8.41-0.18-23.956h-23.224l-2.56 1.829v-6.401l23.954-23.774 22.86 22.677h4.94l20.48-20.117 20.49 20.3h3.47l-27.8-27.615-21.58 21.763-29.806-29.993-44.257 44.075-13.533-24.323 7.132 3.291-12.802-23.408zm18.471 45.354l-2.926 2.926-5.303-7.681 8.229 4.755zm10.973 8.412v30.906l-11.338-19.75 11.338-11.156zm25.603-2.377v12.433h-8.961v-3.838l8.961-8.595z"/>
   <path id="Fill-3" sketch:type="MSShapeGroup" fill="#333" d="m153.24 79.864v10.973h-18.66v6.218h19.02v11.705h-19.02v6.04h19.02v12.61h-36.2v-47.546h35.84"/>
   <path id="Fill-4" sketch:type="MSShapeGroup" fill="#333" d="m162.75 79.864h15.91v47.546h-15.91v-47.546z"/>
   <path id="Fill-5" sketch:type="MSShapeGroup" fill="#333" d="m182.32 84.071c0 2.194 1.83 3.84 3.84 3.84 2.19 0 4.02-1.646 4.02-3.84 0-2.195-1.83-3.841-4.02-3.841-2.01 0-3.84 1.646-3.84 3.841zm0.73 0c0-2.012 1.46-3.292 3.11-3.292 1.83 0 3.29 1.28 3.29 3.292 0 1.828-1.46 3.291-3.29 3.291-1.65 0-3.11-1.463-3.11-3.291zm1.65-2.378h1.82c1.1 0 1.47 0.549 1.47 1.28 0 0.915-0.37 1.281-1.1 1.281l1.28 2.011h-0.73l-1.28-2.011h-0.73v2.011h-0.73v-4.572zm0.73 2.012h0.73c0.55 0 1.28 0 1.28-0.732 0-0.548-0.55-0.731-1.1-0.731h-0.91v1.463z"/>
   <path id="Fill-6" sketch:type="MSShapeGroup" fill="#333" d="m3.826 143.87h5.486v3.29h-0.914l0.914 4.58 2.012-7.87h4.206l2.012 7.87 0.731-4.58h-0.731v-3.29h4.938v3.29h-0.915l-2.011 8.42h-4.389l-2.012-7.87-2.012 7.87h-4.389l-2.012-8.42h-0.914v-3.29"/>
   <path id="Fill-7" sketch:type="MSShapeGroup" fill="#333" d="m27.052 143.87h5.486v3.29h-0.914l0.914 4.58 2.012-7.87h4.206l2.012 7.87 0.731-4.58h-0.731v-3.29h4.938v3.29h-0.915l-2.011 8.42h-4.39l-2.011-7.87-2.012 7.87h-4.389l-2.012-8.42h-0.914v-3.29"/>
   <path id="Fill-8" sketch:type="MSShapeGroup" fill="#333" d="m50.278 143.87h5.486v3.29h-0.914l0.914 4.58 2.012-7.87h4.206l2.012 7.87 0.731-4.58h-0.731v-3.29h4.937v3.29h-0.914l-2.012 8.42h-4.389l-2.011-7.87-2.012 7.87h-4.389l-2.012-8.42h-0.914v-3.29"/>
   <path id="Fill-9" sketch:type="MSShapeGroup" fill="#333" d="m73.138 151.19h4.389v4.39h-4.389v-4.39z"/>
   <path id="Fill-10" sketch:type="MSShapeGroup" fill="#333" d="m87.951 146.07c0.183-0.73 0.549-2.2 2.743-2.2h1.097v3.84c-0.365 0-0.548-0.18-0.914-0.18-0.914 0-1.646 0.37-2.012 0.73-0.548 0.55-0.548 1.1-0.548 2.2v1.82h1.28v3.3h-6.401v-3.3h0.914v-5.12h-0.914v-3.29h4.572l0.183 2.2"/>
   <path id="Fill-11" sketch:type="MSShapeGroup" fill="#333" d="m100.94 148.44c0-0.54 0-1.82 1.46-1.82 0.36 0 0.91 0.18 1.28 0.91v0.91h-2.74zm2.74 3.11c0 0.55-0.18 1.47-1.46 1.47-1.47 0-1.47-1.47-1.47-2.38h7.13c0-1.1 0.19-3.84-1.64-5.49-0.73-0.91-2.2-1.46-4.02-1.46-2.382 0-4.576 1.1-5.308 3.84-0.366 0.73-0.366 1.65-0.366 2.38 0 4.39 2.744 6.03 5.854 6.03 1.46 0 2.92-0.36 4.02-1.46 0.92-0.92 1.1-2.01 1.28-2.93h-4.02z"/>
   <path id="Fill-12" sketch:type="MSShapeGroup" fill="#333" d="m118.13 143.87v8.41h0.91v3.3h-6.22v-3.3h1.1v-5.12h-1.1v-3.29h5.31zm-4.58-4.2h4.58v3.11h-4.58v-3.11z"/>
   <path id="Fill-13" sketch:type="MSShapeGroup" fill="#333" d="m124.89 151.19h4.39v4.39h-4.39v-4.39z"/>
   <path id="Fill-14" sketch:type="MSShapeGroup" fill="#333" d="m145.92 151.19c0 0.73 0 1.28-0.36 2.19-0.73 1.28-2.01 2.56-4.94 2.56-2.74 0-3.66-1.1-4.02-1.46-1.28-1.28-1.65-3.11-1.65-4.94 0-0.73 0-3.29 1.65-4.75 0.73-0.73 1.83-1.1 2.92-1.1 0.55 0 1.28 0 1.83 0.37 0.55 0.36 0.92 0.54 1.1 1.09l0.18-1.28h3.11v4.57h-3.66c0-0.54 0-0.91-0.54-1.46-0.19-0.18-0.55-0.18-0.74-0.18-1.28 0-1.46 1.1-1.46 2.92 0 1.65 0.18 2.93 1.46 2.93 1.1 0 1.28-0.91 1.28-1.46h3.84"/>
   <path id="Fill-15" sketch:type="MSShapeGroup" fill="#333" d="m158.18 149.72c0 0.74 0 2.93-1.65 2.93-0.73 0-1.1-0.55-1.46-0.91-0.19-0.55-0.19-1.28-0.19-2.02 0-0.54 0-1.82 0.55-2.56 0.37-0.18 0.55-0.36 1.1-0.36 1.65 0 1.65 2.19 1.65 2.92zm-7.68 0c0 0.92 0.18 3.11 1.64 4.76 0.92 0.73 1.83 1.1 2.74 1.28 0.55 0.18 1.1 0.18 1.65 0.18 0.91 0 2.01-0.18 3.11-0.55 0.92-0.55 1.83-1.28 2.38-2.92 0.36-0.92 0.36-1.83 0.36-2.56 0-3.84-1.82-6.22-5.85-6.22-1.1 0-2.19 0.18-3.29 0.73-2.74 1.46-2.74 4.39-2.74 5.3z"/>
   <path id="Fill-16" sketch:type="MSShapeGroup" fill="#333" d="m172.44 145.52c0.37-0.73 1.46-1.83 3.29-1.83 0.55 0 1.47 0 2.2 0.91 0.36 0.37 0.55 0.55 0.73 0.92 0-0.18 0.18-0.55 0.55-0.92 0.55-0.54 1.46-0.91 2.56-0.91s1.83 0.37 2.19 0.73c0.74 0.73 0.74 1.65 0.92 2.38v5.48h0.91v3.3h-5.12v-7.14c0-0.54 0-1.28-0.91-1.28-0.19 0-0.55 0.19-0.74 0.37-0.36 0.37-0.36 0.73-0.36 1.28v3.47h0.73v3.3h-4.75v-6.77c0-0.73 0-1.65-0.92-1.65-0.36 0-0.55 0.19-0.73 0.37-0.37 0.37-0.37 0.91-0.37 1.46v3.29h0.74v3.3h-5.86v-3.3h0.92v-5.12h-0.92v-3.29h4.76l0.18 1.65"/>
  </g>
 </g>
</svg>

<?xml version="1.0" encoding="UTF-8" standalone="no"?>
<svg viewBox="0 0 220 200" version="1.1" xmlns="http://www.w3.org/2000/svg" xmlns:xlink="http://www.w3.org/1999/xlink" xmlns:sketch="http://www.bohemiancoding.com/sketch/ns">
    <!-- Generator: Sketch 3.3.1 (12002) - http://www.bohemiancoding.com/sketch -->
    <title>REI</title>
    <desc>Created with Sketch.</desc>
    <defs></defs>
    <g id="Page-1" stroke="none" stroke-width="1" fill="none" fill-rule="evenodd" sketch:type="MSPage">
        <g id="REI" sketch:type="MSLayerGroup">
            <path d="M0.26,0.677 L193.016,0.677 L193.016,193.433 L0.26,193.433 L0.26,0.677 Z" id="Fill-1" fill="transparent" sketch:type="MSShapeGroup"></path>
            <path d="M35.464,38.168 L21.748,61.028 L29.064,58.65 L15.713,82.79 L23.76,78.584 L9.678,104.187 L19.371,99.615 L3.094,127.231 L81.55,127.231 L81.55,117.355 L83.379,117.355 L93.803,127.231 L114.469,127.231 L99.472,112.234 L107.885,103.822 L107.702,79.864 L84.476,79.864 L81.916,81.693 L81.916,75.292 L105.873,51.518 L128.733,74.195 L133.671,74.195 L154.154,54.078 L174.636,74.378 L178.111,74.378 L150.313,46.763 L128.733,68.526 L98.924,38.533 L54.667,82.608 L41.134,58.285 L48.266,61.576 L35.464,38.168 L35.464,38.168 Z M53.935,83.522 L51.009,86.448 L45.706,78.767 L53.935,83.522 L53.935,83.522 Z M64.908,91.934 L64.908,122.841 L53.57,103.09 L64.908,91.934 L64.908,91.934 Z M90.511,89.557 L90.511,101.993 L81.55,101.993 L81.55,98.152 L90.511,89.557 L90.511,89.557 Z" id="Fill-2" fill="rgb(51, 51, 51)" sketch:type="MSShapeGroup"></path>
            <path d="M153.239,79.864 L153.239,90.837 L134.585,90.837 L134.585,97.055 L153.605,97.055 L153.605,108.759 L134.585,108.759 L134.585,114.795 L153.605,114.795 L153.605,127.413 L117.395,127.413 L117.395,79.864 L153.239,79.864" id="Fill-3" fill="rgb(51, 51, 51)" sketch:type="MSShapeGroup"></path>
            <path d="M162.749,79.864 L178.66,79.864 L178.66,127.413 L162.749,127.413 L162.749,79.864 Z" id="Fill-4" fill="rgb(51, 51, 51)" sketch:type="MSShapeGroup"></path>
            <path d="M182.317,84.071 C182.317,86.265 184.146,87.911 186.158,87.911 C188.352,87.911 190.181,86.265 190.181,84.071 C190.181,81.876 188.352,80.23 186.158,80.23 C184.146,80.23 182.317,81.876 182.317,84.071 L182.317,84.071 Z M183.049,84.071 C183.049,82.059 184.512,80.779 186.158,80.779 C187.987,80.779 189.449,82.059 189.449,84.071 C189.449,85.899 187.987,87.362 186.158,87.362 C184.512,87.362 183.049,85.899 183.049,84.071 L183.049,84.071 Z M184.695,81.693 L186.524,81.693 C187.621,81.693 187.987,82.242 187.987,82.973 C187.987,83.888 187.621,84.254 186.889,84.254 L188.169,86.265 L187.438,86.265 L186.158,84.254 L185.426,84.254 L185.426,86.265 L184.695,86.265 L184.695,81.693 L184.695,81.693 Z M185.426,83.705 L186.158,83.705 C186.706,83.705 187.438,83.705 187.438,82.973 C187.438,82.425 186.889,82.242 186.341,82.242 L185.426,82.242 L185.426,83.705 L185.426,83.705 Z" id="Fill-5" fill="rgb(51, 51, 51)" sketch:type="MSShapeGroup"></path>
            <path d="M3.826,143.872 L9.312,143.872 L9.312,147.164 L8.398,147.164 L9.312,151.736 L11.324,143.872 L15.53,143.872 L17.542,151.736 L18.273,147.164 L17.542,147.164 L17.542,143.872 L22.48,143.872 L22.48,147.164 L21.565,147.164 L19.554,155.577 L15.165,155.577 L13.153,147.713 L11.141,155.577 L6.752,155.577 L4.74,147.164 L3.826,147.164 L3.826,143.872" id="Fill-6" fill="rgb(51, 51, 51)" sketch:type="MSShapeGroup"></path>
            <path d="M27.052,143.872 L32.538,143.872 L32.538,147.164 L31.624,147.164 L32.538,151.736 L34.55,143.872 L38.756,143.872 L40.768,151.736 L41.499,147.164 L40.768,147.164 L40.768,143.872 L45.706,143.872 L45.706,147.164 L44.791,147.164 L42.78,155.577 L38.39,155.577 L36.379,147.713 L34.367,155.577 L29.978,155.577 L27.966,147.164 L27.052,147.164 L27.052,143.872" id="Fill-7" fill="rgb(51, 51, 51)" sketch:type="MSShapeGroup"></path>
            <path d="M50.278,143.872 L55.764,143.872 L55.764,147.164 L54.85,147.164 L55.764,151.736 L57.776,143.872 L61.982,143.872 L63.994,151.736 L64.725,147.164 L63.994,147.164 L63.994,143.872 L68.931,143.872 L68.931,147.164 L68.017,147.164 L66.005,155.577 L61.616,155.577 L59.605,147.713 L57.593,155.577 L53.204,155.577 L51.192,147.164 L50.278,147.164 L50.278,143.872" id="Fill-8" fill="rgb(51, 51, 51)" sketch:type="MSShapeGroup"></path>
            <path d="M73.138,151.188 L77.527,151.188 L77.527,155.577 L73.138,155.577 L73.138,151.188 Z" id="Fill-9" fill="rgb(51, 51, 51)" sketch:type="MSShapeGroup"></path>
            <path d="M87.951,146.067 C88.134,145.336 88.5,143.872 90.694,143.872 L91.791,143.872 L91.791,147.713 C91.426,147.713 91.243,147.53 90.877,147.53 C89.963,147.53 89.231,147.896 88.865,148.262 C88.317,148.81 88.317,149.359 88.317,150.456 L88.317,152.285 L89.597,152.285 L89.597,155.577 L83.196,155.577 L83.196,152.285 L84.11,152.285 L84.11,147.164 L83.196,147.164 L83.196,143.872 L87.768,143.872 L87.951,146.067" id="Fill-10" fill="rgb(51, 51, 51)" sketch:type="MSShapeGroup"></path>
            <path d="M100.935,148.444 C100.935,147.896 100.935,146.616 102.399,146.616 C102.764,146.616 103.313,146.799 103.679,147.53 L103.679,148.444 L100.935,148.444 L100.935,148.444 Z M103.679,151.553 C103.679,152.102 103.496,153.016 102.216,153.016 C100.753,153.016 100.753,151.553 100.753,150.639 L107.885,150.639 C107.885,149.542 108.068,146.799 106.239,145.153 C105.507,144.238 104.044,143.69 102.216,143.69 C99.838,143.69 97.644,144.787 96.912,147.53 C96.546,148.262 96.546,149.176 96.546,149.908 C96.546,154.297 99.29,155.943 102.399,155.943 C103.862,155.943 105.325,155.577 106.422,154.48 C107.336,153.565 107.519,152.468 107.702,151.553 L103.679,151.553 L103.679,151.553 Z" id="Fill-11" fill="rgb(51, 51, 51)" sketch:type="MSShapeGroup"></path>
            <path d="M118.126,143.872 L118.126,152.285 L119.041,152.285 L119.041,155.577 L112.823,155.577 L112.823,152.285 L113.92,152.285 L113.92,147.164 L112.823,147.164 L112.823,143.872 L118.126,143.872 L118.126,143.872 Z M113.554,139.666 L118.126,139.666 L118.126,142.775 L113.554,142.775 L113.554,139.666 Z" id="Fill-12" fill="rgb(51, 51, 51)" sketch:type="MSShapeGroup"></path>
            <path d="M124.893,151.188 L129.282,151.188 L129.282,155.577 L124.893,155.577 L124.893,151.188 Z" id="Fill-13" fill="rgb(51, 51, 51)" sketch:type="MSShapeGroup"></path>
            <path d="M145.924,151.188 C145.924,151.919 145.924,152.468 145.558,153.382 C144.827,154.663 143.547,155.943 140.62,155.943 C137.877,155.943 136.963,154.845 136.597,154.48 C135.317,153.2 134.951,151.371 134.951,149.542 C134.951,148.81 134.951,146.25 136.597,144.787 C137.329,144.056 138.426,143.69 139.523,143.69 C140.072,143.69 140.803,143.69 141.352,144.056 C141.901,144.421 142.267,144.604 142.449,145.153 L142.632,143.872 L145.741,143.872 L145.741,148.444 L142.084,148.444 C142.084,147.896 142.084,147.53 141.535,146.981 C141.352,146.799 140.986,146.799 140.803,146.799 C139.523,146.799 139.34,147.896 139.34,149.725 C139.34,151.371 139.523,152.651 140.803,152.651 C141.901,152.651 142.084,151.736 142.084,151.188 L145.924,151.188" id="Fill-14" fill="rgb(51, 51, 51)" sketch:type="MSShapeGroup"></path>
            <path d="M158.177,149.725 C158.177,150.456 158.177,152.651 156.531,152.651 C155.8,152.651 155.434,152.102 155.068,151.736 C154.885,151.188 154.885,150.456 154.885,149.725 C154.885,149.176 154.885,147.896 155.434,147.164 C155.8,146.981 155.983,146.799 156.531,146.799 C158.177,146.799 158.177,148.993 158.177,149.725 L158.177,149.725 Z M150.496,149.725 C150.496,150.639 150.679,152.834 152.142,154.48 C153.056,155.211 153.971,155.577 154.885,155.76 C155.434,155.943 155.983,155.943 156.531,155.943 C157.445,155.943 158.543,155.76 159.64,155.394 C160.555,154.845 161.469,154.114 162.017,152.468 C162.383,151.553 162.383,150.639 162.383,149.908 C162.383,146.067 160.555,143.69 156.531,143.69 C155.434,143.69 154.336,143.872 153.239,144.421 C150.496,145.884 150.496,148.81 150.496,149.725 L150.496,149.725 Z" id="Fill-15" fill="rgb(51, 51, 51)" sketch:type="MSShapeGroup"></path>
            <path d="M172.442,145.519 C172.808,144.787 173.905,143.69 175.733,143.69 C176.282,143.69 177.197,143.69 177.928,144.604 C178.294,144.97 178.477,145.153 178.66,145.519 C178.66,145.336 178.843,144.97 179.208,144.604 C179.757,144.056 180.671,143.69 181.769,143.69 C182.866,143.69 183.597,144.056 183.963,144.421 C184.695,145.153 184.695,146.067 184.877,146.799 L184.877,152.285 L185.792,152.285 L185.792,155.577 L180.671,155.577 L180.671,148.444 C180.671,147.896 180.671,147.164 179.757,147.164 C179.574,147.164 179.208,147.347 179.025,147.53 C178.66,147.896 178.66,148.262 178.66,148.81 L178.66,152.285 L179.391,152.285 L179.391,155.577 L174.636,155.577 L174.636,148.81 C174.636,148.079 174.636,147.164 173.722,147.164 C173.356,147.164 173.173,147.347 172.99,147.53 C172.624,147.896 172.624,148.444 172.624,148.993 L172.624,152.285 L173.356,152.285 L173.356,155.577 L167.504,155.577 L167.504,152.285 L168.418,152.285 L168.418,147.164 L167.504,147.164 L167.504,143.872 L172.259,143.872 L172.442,145.519" id="Fill-16" fill="rgb(51, 51, 51)" sketch:type="MSShapeGroup"></path>
        </g>
    </g>
</svg>
